X: 40812
T: Traditional, The
R: jig
M: 6/8
K: Gmajor
B/c/|dBG GFG|Bcd =fdB|cA=F FEF|CFA cBc|dBG GFG|
Bcd ^fga|gfd cAF|GAG G2:|B/c/|dgg gfg|bag agf|
cde fef|agf agf|dgg gfg|Bcd ^fga|gfd cAF|GAG G2:|

